client/img/brand/logo/emblem.svg

<?xml version="1.0" encoding="UTF-8"?>
<svg width="50px" height="50px" viewBox="0 0 50 50" version="1.1" xmlns="http://www.w3.org/2000/svg" xmlns:xlink="http://www.w3.org/1999/xlink">
    <defs>
        <path d="M16.855,27.115 C16.2955,27.115 15.7435,27.016 15.2155,26.8225 L15.826,25.165 C16.1575,25.2865 16.5025,25.348 16.855,25.348 C17.245,25.348 17.626,25.273 17.986,25.126 L18.6565,26.761 C18.0835,26.9965 17.4775,27.115 16.855,27.115 Z M29.86,25.9405 L27.3715,24.523 L28.246,22.987 L30.736,24.4045 L29.86,25.9405 L29.86,25.9405 Z M20.1775,25.9105 L19.27,24.394 L21.7285,22.9225 L22.636,24.439 L20.1775,25.9105 Z M26.0545,23.7985 C25.69,23.647 25.3045,23.569 24.9085,23.569 C24.5635,23.569 24.223,23.629 23.8975,23.7475 L23.296,22.0855 C23.815,21.898 24.358,21.8035 24.9085,21.802 C25.5385,21.802 26.1535,21.925 26.734,22.168 L26.0545,23.7985 L26.0545,23.7985 Z M12.9535,23.554 C12.151,23.554 11.5,24.2035 11.5,25.006 C11.5,25.8085 12.151,26.458 12.9535,26.458 C13.756,26.458 14.407,25.807 14.407,25.006 C14.4055,24.2035 13.756,23.554 12.9535,23.554 L12.9535,23.554 Z M33.3175,13 L25,7 L16.6825,13 L7,7 L7,37 L16.6825,43 L25,37 L33.3175,43 L43,37 L43,7 L33.3175,13 L33.3175,13 Z M40,35.3305 L34,39.049 L34,32.5 L32.5,32.5 L32.5,38.7115 L26.5,34.384 L26.5,28 L23.5,28 L23.5,34.3825 L17.5,38.71 L17.5,31 L16,31 L16,39.0475 L10,35.329 L10,12.388 L16,16.1065 L16,20.5 L17.5,20.5 L17.5,16.1095 L23.5,11.7805 L23.5,17.5 L26.5,17.5 L26.5,11.7805 L32.5,16.1095 L32.5,19 L34,19 L34,16.1065 L40,12.388 L40,35.3305 Z M38.008,28.024 L36.064,26.113 L37.9735,24.1735 L36.9115,23.1205 L35.0035,25.063 L33.0625,23.155 L32.008,24.208 L33.952,26.122 L32.0425,28.066 L33.097,29.1205 L35.0125,27.1735 L36.955,29.086 L38.008,28.024 L38.008,28.024 Z" id="path-1"></path>
    </defs>
    <g id="Symbols" stroke="none" stroke-width="1" fill="none" fill-rule="evenodd">
        <g id="brand/logo/emblem">
            <mask id="mask-2" fill="white">
                <use xlink:href="#path-1"></use>
            </mask>
            <use id="Map" fill="#0E1C2D" fill-rule="nonzero" xlink:href="#path-1"></use>
        </g>
    </g>
</svg>

<svg xmlns="http://www.w3.org/2000/svg" width="50" height="50" viewBox="0 0 50 50" xmlns:xlink="http://www.w3.org/1999/xlink"><defs><path id="a" d="M16.855 27.115c-.56 0-1.112-.099-1.64-.292l.611-1.658a2.976 2.976 0 0 0 2.16-.039l.67 1.635a4.714 4.714 0 0 1-1.801.354zm13.005-1.174l-2.488-1.418.874-1.536 2.49 1.418-.876 1.535zm-9.683-.03l-.907-1.517 2.459-1.471.907 1.516-2.459 1.471zm5.878-2.113a2.972 2.972 0 0 0-2.157-.05l-.602-1.663a4.772 4.772 0 0 1 1.613-.283c.63 0 1.245.123 1.825.366l-.68 1.63zm-13.101-.244a1.453 1.453 0 1 0-.002 2.905 1.453 1.453 0 0 0 .002-2.905zM33.318 13L25 7l-8.317 6L7 7v30l9.683 6L25 37l8.318 6L43 37V7l-9.682 6zM40 35.33l-6 3.719V32.5h-1.5v6.212l-6-4.328V28h-3v6.383l-6 4.327V31H16v8.047l-6-3.718V12.388l6 3.719V20.5h1.5v-4.39l6-4.33v5.72h3v-5.72l6 4.33V19H34v-2.893l6-3.719v22.943zm-1.992-7.306l-1.944-1.911 1.91-1.94-1.063-1.052-1.907 1.942-1.941-1.908-1.055 1.053 1.944 1.914-1.91 1.944 1.055 1.055 1.916-1.947 1.942 1.912 1.053-1.062z"/></defs><use fill="#0E1C2D" fill-rule="nonzero" xlink:href="#a"/></svg>
